!!!COM: Corelli, Arcangelo
!!!OTL: 
!!!ONM: Opus 3, No. 12
!!!OMV: 5
!!!CDT: 1653/2/17/-1713/1/8/
!!!OCY: Italia
**kern	**kern	**kern	**kern
*clefC	*clefC	*clefG	*clefG
*k[f#c#]	*k[f#c#]	*k[f#c#]	*k[f#c#]
*D:	*D:	*D:	*D:
*M4/4	*M4/4	*M4/4	*M4/4
=1	=1	=1	=1
1AA	1AA	2r	16aa
.	.	.	16ee
.	.	.	16cc#
.	.	.	16ee
.	.	.	16cc#
.	.	.	16a
.	.	.	16e
.	.	.	16a
.	.	16aa	4c#
.	.	16ee	.
.	.	16cc#	.
.	.	16ee	.
.	.	16a	4r
.	.	16aa	.
.	.	16ee	.
.	.	16aa	.
=2	=2	=2	=2
1D	1D	4ff#	16aa
.	.	.	16ff#
.	.	.	16dd
.	.	.	16ff#
.	.	4r	16a
.	.	.	16dd
.	.	.	16f#
.	.	.	16a
.	.	16dd	4d
.	.	16ff#	.
.	.	16aa	.
.	.	16ff#	.
.	.	16dd	4r
.	.	16ff#	.
.	.	16a	.
.	.	16dd	.
=3	=3	=3	=3
1D#	1D#	4f#	16bb
.	.	.	16ff#
.	.	.	16dd#
.	.	.	16ff#
.	.	4r	16b
.	.	.	16dd#
.	.	.	16f#
.	.	.	16b
.	.	16bb	4d#
.	.	16ff#	.
.	.	16dd#	.
.	.	16ff#	.
.	.	16b	4r
.	.	16bb	.
.	.	16ff#	.
.	.	16bb	.
=4	=4	=4	=4
1E	1E	4gg#	16ee
.	.	.	16b
.	.	.	16g#
.	.	.	16b
.	.	4r	16e
.	.	.	16g#
.	.	.	16B
.	.	.	16e
.	.	16ee	4G#
.	.	16b	.
.	.	16g#	.
.	.	16b	.
.	.	16e	4r
.	.	16ee	.
.	.	16b	.
.	.	16ee	.
=5	=5	=5	=5
1AA	1AA	4cc#	16aa
.	.	.	16ee
.	.	.	16cc#
.	.	.	16ee
.	.	4r	16a
.	.	.	16cc#
.	.	.	16e
.	.	.	16a
.	.	16aa	4c#
.	.	16ee	.
.	.	16cc#	.
.	.	16ee	.
.	.	16a	4r
.	.	16aa	.
.	.	16ee	.
.	.	16aa	.
=6	=6	=6	=6
4D	4D	8ff#	8r
.	.	4bb	8ff#
4E	4E	.	8gg#
.	.	4ccc#	8ee
4F#	4F#	.	8aa
.	.	4ddd	8ff#
4G#	4G#	.	8bb
.	.	[8eee	8gg#
=7	=7	=7	=7
8A	8A	8eee]	4ccc#
8F#	8F#	4ddd	.
8G#	8G#	.	4bb
8E	8E	4ccc#	.
8F#	8F#	.	4aa
8D#	8D#	4bb	.
8E	8E	.	4gg#
8C#	8C#	[8aa	.
=8	=8	=8	=8
8D#	8D#	8aa]	8ff#
8BB	8BB	4gg#	8bb
8C#	8C#	.	8ee
8AA	8AA	8ccc#	8aa
8BB	8BB	4ff#	8dd#
8B	8B	.	8b
8G#	8G#	4gg#	4ee
8E	8E	.	.
=9	=9	=9	=9
8A	8A	2ff#	4.ee
8F#	8F#	.	.
8B	8B	.	.
8BB	8BB	.	8dd#
2E	2E	4ee	16ee
.	.	.	16gg#
.	.	.	16bb
.	.	.	16gg#
.	.	4r	16ee
.	.	.	16b
.	.	.	16g#
.	.	.	16b
=10	=10	=10	=10
2G#	2G#	16ee	4e
.	.	16gg#	.
.	.	16bb	.
.	.	16gg#	.
.	.	16ee	4r
.	.	16b	.
.	.	16g#	.
.	.	16ee	.
2A	2A	4cc#	16cc#
.	.	.	16ee
.	.	.	16aa
.	.	.	16ee
.	.	4r	16cc#
.	.	.	16a
.	.	.	16e
.	.	.	16c#
=11	=11	=11	=11
2C#	2C#	16a	4A
.	.	16cc#	.
.	.	16ee	.
.	.	16cc#	.
.	.	16a	4r
.	.	16ee	.
.	.	16aa	.
.	.	16ee	.
2D	2D	4ff#	16aa
.	.	.	16ff#
.	.	.	16dd
.	.	.	16ff#
.	.	4r	16a
.	.	.	16dd
.	.	.	16f#
.	.	.	16a
=12	=12	=12	=12
[1D	[1D	16aa	4d
.	.	16ff#	.
.	.	16dd	.
.	.	16ff#	.
.	.	16a	4r
.	.	16dd	.
.	.	16f#	.
.	.	16a	.
.	.	4d	16ff#
.	.	.	16aa
.	.	.	16gg
.	.	.	16aa
.	.	4r	16ff#
.	.	.	16gg
.	.	.	16ee
.	.	.	16ff#
=13	=13	=13	=13
1D]	1D]	16ff#	16dd
.	.	16aa	16ff#
.	.	16gg	16ee
.	.	16aa	16ff#
.	.	16ff#	16dd
.	.	16gg	16ee
.	.	16ee	16cc#
.	.	16ff#	16dd
.	.	16dd	16b
.	.	16ff#	16dd
.	.	16ee	16cc#
.	.	16ff#	16dd
.	.	16dd	16b
.	.	16ee	16cc#
.	.	16cc#	16a
.	.	16dd	16b
=14	=14	=14	=14
[1E	[1E	4b	16g#
.	.	.	16e
.	.	.	16f#
.	.	.	16g#
.	.	4r	16a
.	.	.	16f#
.	.	.	16g#
.	.	.	16a
.	.	16r	16b
.	.	16e	16g#
.	.	16f#	16a
.	.	16g#	16b
.	.	16a	16cc#
.	.	16f#	16a
.	.	16g#	16b
.	.	16a	16cc#
=15	=15	=15	=15
1E_	1E_	16b	16dd
.	.	16g#	16b
.	.	16a	16cc#
.	.	16b	16dd
.	.	16cc#	16ee
.	.	16a	16cc#
.	.	16b	16dd
.	.	16cc#	16ee
.	.	16dd	16ff#
.	.	16b	16dd
.	.	16cc#	16ee
.	.	16dd	16ff#
.	.	16ee	16gg#
.	.	16cc#	16ee
.	.	16dd	16ff#
.	.	16ee	16gg#
=16	=16	=16	=16
2E]	2E]	16ff#	16aa
.	.	16dd	16ff#
.	.	16ee	16gg#
.	.	16ff#	16aa
.	.	16gg#	16bb
.	.	16ee	16gg#
.	.	16ff#	16aa
.	.	16gg#	16bb
4A	16C#	4aa	2ccc#
.	16A	.	.
.	16c#	.	.
.	16B	.	.
4AA	16A	[4aa	.
.	16B	.	.
.	16c#	.	.
.	16d	.	.
=17	=17	=17	=17
2E	16e	4aa]	2bb
.	16E	.	.
.	16G#	.	.
.	16F#	.	.
.	16E	2gg#	.
.	16F#	.	.
.	16G#	.	.
.	16E	.	.
4F#	16F#	.	2aa
.	16E	.	.
.	16F#	.	.
.	16G#	.	.
4FF#	16A	[4ff#	.
.	16G#	.	.
.	16A	.	.
.	16B	.	.
=18	=18	=18	=18
2C#	16c#	4ff#]	2gg#
.	16C#	.	.
.	16E	.	.
.	16D	.	.
.	16C#	2ee	.
.	16D	.	.
.	16E	.	.
.	16C#	.	.
4D	16D	.	2ff#
.	16C#	.	.
.	16D	.	.
.	16E	.	.
4DD	16F#	[4dd	.
.	16E	.	.
.	16F#	.	.
.	16G#	.	.
=19	=19	=19	=19
2AA	16A	4dd]	2ee
.	16G#	.	.
.	16A	.	.
.	16B	.	.
.	16c#	2cc#	.
.	16B	.	.
.	16c#	.	.
.	16A	.	.
4BB	16B	.	2dd
.	16c#	.	.
.	16B	.	.
.	16A	.	.
4E	16G#	[4b	.
.	16F#	.	.
.	16G#	.	.
.	16E	.	.
=20	=20	=20	=20
4A	16A	4b]	2.cc#
.	16AA	.	.
.	16C#	.	.
.	16BB	.	.
4AA	16AA	4a	.
.	16BB	.	.
.	16C#	.	.
.	16AA	.	.
4D	4D	8f#	.
.	.	8g#	.
4D#	4D#	[4a	8b
.	.	.	8a
=21	=21	=21	=21
2E	2E	4a]	4cc#
.	.	4g#	4b
4A	4A	4a	4a
4G#	4G#	4r	4ee
=22	=22	=22	=22
4F#	4F#	4r	2.aa
4C#	4C#	4ee	.
4D	4D	[2bb	.
4E	4E	.	4gg#
=23	=23	=23	=23
4AA	4AA	4bb]	2.ccc#
4A	4A	4aa	.
4F#	4F#	2ddd	.
4G#	4G#	.	[4bb
=24	=24	=24	=24
4A	4A	2.ccc#	8bb]
.	.	.	8ee
4C#	4C#	.	8aa
.	.	.	8gg#
4D	4D	.	8ff#
.	.	.	8gg#
4D#	4D#	4cc	[4aa
=25	=25	=25	=25
4E	4E	2bb	4aa]
4EE	4EE	.	4gg#
2AA	2AA	2aa	2aa
==	==	==	==
*-	*-	*-	*-
!!!RWG: This file only contains pitch and duration data.
!!!RWG: Transposing instruments are not transposed.
!!!RWG: Durations of rests and tied notes may be interpreted.
!!!RWG: Key is interpreted using the Humdrum key tool.
!!!SCA: 
!!!YOR: Chrysander Edition
!!!AGN: chamber
!!!AFT: stage1
!!!ENC: F. Bennion
!!!END: 1997/04/15
!!!AST: baroque
!!!YEC: Copyright 1994, Center for Computer Assisted Research in the Humanities
!!!YEM: Rights to all derivative electronic formats reserved.
!!!YEM: Refer to licensing agreement for further details.
!!!YEN: United States of America
!!!EED: W.B. Hewlett
!!!KEY: 3814909848
!!!EMD: Converted from MuseData to Humdrum Aug 9, 1999, by Bret Aarden using muse2kern.
!!!VTS: 1030542908
